Newaita-dark/.DP/32/weather-windy.svg

<svg xmlns="http://www.w3.org/2000/svg" xmlns:xlink="http://www.w3.org/1999/xlink" width="32px" height="32px" viewBox="0 0 32 32" version="1.1">
<defs>
<radialGradient id="radial0" gradientUnits="userSpaceOnUse" cx="450.908997" cy="189.578995" fx="450.908997" fy="189.578995" r="21.167" gradientTransform="matrix(0,-0.07814,-0.14064,0,43.529999,60.916)">
<stop offset="0" style="stop-color:rgb(0%,0%,0%);stop-opacity:0.314;"/>
<stop offset="0.222" style="stop-color:rgb(0%,0%,0%);stop-opacity:0.275;"/>
<stop offset="1" style="stop-color:rgb(0%,0%,0%);stop-opacity:0;"/>
</radialGradient>
<radialGradient id="radial1" gradientUnits="userSpaceOnUse" cx="450.908997" cy="189.578995" fx="450.908997" fy="189.578995" r="21.167" gradientTransform="matrix(0,0.07814,0.14064,0,-9.132,-10.206)">
<stop offset="0" style="stop-color:rgb(0%,0%,0%);stop-opacity:0.314;"/>
<stop offset="0.222" style="stop-color:rgb(0%,0%,0%);stop-opacity:0.275;"/>
<stop offset="1" style="stop-color:rgb(0%,0%,0%);stop-opacity:0;"/>
</radialGradient>
<radialGradient id="radial2" gradientUnits="userSpaceOnUse" cx="450.908997" cy="189.578995" fx="450.908997" fy="189.578995" r="21.167" gradientTransform="matrix(0,-0.07814,0.14064,0,-9.132,60.916)">
<stop offset="0" style="stop-color:rgb(0%,0%,0%);stop-opacity:0.314;"/>
<stop offset="0.222" style="stop-color:rgb(0%,0%,0%);stop-opacity:0.275;"/>
<stop offset="1" style="stop-color:rgb(0%,0%,0%);stop-opacity:0;"/>
</radialGradient>
<radialGradient id="radial3" gradientUnits="userSpaceOnUse" cx="450.908997" cy="189.578995" fx="450.908997" fy="189.578995" r="21.167" gradientTransform="matrix(0,0.07814,-0.14064,0,43.529999,-10.206)">
<stop offset="0" style="stop-color:rgb(0%,0%,0%);stop-opacity:0.314;"/>
<stop offset="0.222" style="stop-color:rgb(0%,0%,0%);stop-opacity:0.275;"/>
<stop offset="1" style="stop-color:rgb(0%,0%,0%);stop-opacity:0;"/>
</radialGradient>
<linearGradient id="linear0" gradientUnits="userSpaceOnUse" x1="1040" y1="1535.118042" x2="1040" y2="295.118011" gradientTransform="matrix(0.016538,0.000254604,-0.000254604,0.016538,0,0)">
<stop offset="0" style="stop-color:rgb(69.01961%,74.509805%,77.254903%);stop-opacity:1;"/>
<stop offset="1" style="stop-color:rgb(81.176472%,84.705883%,86.274511%);stop-opacity:1;"/>
</linearGradient>
</defs>
<g id="surface1">
<path style=" stroke:none;fill-rule:nonzero;fill:url(#radial0);" d="M 17.203125 25.351562 L 19.84375 25.351562 L 19.84375 24.03125 L 17.203125 24.03125 Z M 17.203125 25.351562 "/>
<path style=" stroke:none;fill-rule:nonzero;fill:url(#radial1);" d="M 17.203125 25.351562 L 14.554688 25.351562 L 14.554688 26.679688 L 17.203125 26.679688 Z M 17.203125 25.351562 "/>
<path style=" stroke:none;fill-rule:nonzero;fill:url(#radial2);" d="M 17.203125 25.351562 L 14.554688 25.351562 L 14.554688 24.03125 L 17.203125 24.03125 Z M 17.203125 25.351562 "/>
<path style=" stroke:none;fill-rule:nonzero;fill:url(#radial3);" d="M 17.203125 25.351562 L 19.84375 25.351562 L 19.84375 26.679688 L 17.203125 26.679688 Z M 17.203125 25.351562 "/>
<path style=" stroke:none;fill-rule:nonzero;fill:url(#linear0);" d="M 14.882812 4.914062 C 14.007812 4.914062 13.164062 5.257812 12.546875 5.882812 C 11.929688 6.5 11.578125 7.34375 11.578125 8.21875 C 11.578125 8.96875 11.820312 9.648438 12.234375 10.203125 L 6.617188 10.203125 C 6.25 10.203125 5.953125 10.5 5.953125 10.867188 C 5.953125 11.234375 6.25 11.53125 6.617188 11.53125 L 14.882812 11.53125 C 16.71875 11.53125 18.195312 10.054688 18.195312 8.21875 C 18.195312 6.390625 16.71875 4.914062 14.882812 4.914062 Z M 25.140625 4.914062 C 23.304688 4.914062 21.828125 6.390625 21.828125 8.21875 C 21.828125 8.96875 22.078125 9.648438 22.484375 10.203125 L 18.914062 10.203125 C 18.6875 10.726562 18.320312 11.1875 17.867188 11.53125 L 24.476562 11.53125 C 24.546875 11.53125 24.617188 11.515625 24.679688 11.492188 C 24.828125 11.515625 24.984375 11.53125 25.140625 11.53125 C 26.96875 11.53125 28.445312 10.054688 28.445312 8.21875 C 28.445312 7.34375 28.101562 6.5 27.476562 5.882812 C 26.859375 5.257812 26.015625 4.914062 25.140625 4.914062 Z M 11.242188 13.476562 C 10.875 13.476562 10.578125 13.773438 10.585938 14.140625 C 10.578125 14.507812 10.875 14.804688 11.242188 14.804688 L 22.484375 14.804688 C 22.054688 15.375 21.828125 16.078125 21.828125 16.789062 C 21.828125 18.617188 23.304688 20.09375 25.140625 20.09375 C 26.015625 20.09375 26.859375 19.75 27.476562 19.125 C 28.09375 18.507812 28.445312 17.664062 28.445312 16.789062 C 28.445312 14.953125 26.96875 13.476562 25.140625 13.476562 Z M 3.3125 18.773438 C 2.945312 18.773438 2.648438 19.070312 2.648438 19.4375 C 2.648438 19.796875 2.945312 20.09375 3.3125 20.09375 L 14.554688 20.09375 C 14.125 20.664062 13.898438 21.359375 13.898438 22.078125 C 13.898438 23.914062 15.367188 25.390625 17.203125 25.390625 C 19.039062 25.390625 20.507812 23.914062 20.507812 22.078125 C 20.507812 20.25 19.039062 18.773438 17.203125 18.773438 Z M 3.3125 18.773438 "/>
<path style=" stroke:none;fill-rule:nonzero;fill:rgb(99.607843%,99.607843%,99.607843%);fill-opacity:0.392;" d="M 14.882812 4.914062 C 14.007812 4.914062 13.164062 5.257812 12.546875 5.882812 C 11.929688 6.5 11.578125 7.34375 11.578125 8.21875 L 11.578125 8.367188 C 11.65625 6.601562 13.117188 5.210938 14.882812 5.210938 C 16.664062 5.210938 18.109375 6.609375 18.1875 8.367188 C 18.1875 8.320312 18.195312 8.273438 18.195312 8.21875 C 18.195312 6.390625 16.71875 4.914062 14.882812 4.914062 Z M 25.140625 4.914062 C 24.242188 4.914062 23.375 5.28125 22.75 5.929688 C 22.125 6.585938 21.796875 7.46875 21.835938 8.367188 C 21.914062 6.601562 23.367188 5.203125 25.140625 5.210938 C 26.921875 5.210938 28.367188 6.609375 28.445312 8.367188 L 28.445312 8.21875 C 28.445312 7.34375 28.101562 6.5 27.476562 5.882812 C 26.859375 5.257812 26.015625 4.914062 25.140625 4.914062 Z M 6.617188 10.203125 C 6.414062 10.203125 6.21875 10.296875 6.09375 10.453125 C 5.96875 10.609375 5.921875 10.820312 5.96875 11.015625 C 6.03125 10.710938 6.304688 10.5 6.617188 10.5 L 12.234375 10.5 C 12.164062 10.40625 12.09375 10.304688 12.03125 10.203125 Z M 18.914062 10.203125 C 18.679688 10.726562 18.320312 11.1875 17.867188 11.53125 L 18.210938 11.53125 C 18.507812 11.234375 18.742188 10.890625 18.914062 10.5 L 22.484375 10.5 C 22.414062 10.40625 22.351562 10.304688 22.289062 10.203125 Z M 11.242188 13.476562 C 11.039062 13.476562 10.851562 13.570312 10.726562 13.726562 C 10.601562 13.890625 10.554688 14.09375 10.601562 14.289062 C 10.671875 13.992188 10.9375 13.78125 11.242188 13.78125 L 25.140625 13.78125 C 26.921875 13.78125 28.367188 15.171875 28.445312 16.9375 L 28.445312 16.789062 C 28.445312 14.953125 26.96875 13.476562 25.140625 13.476562 Z M 22.289062 15.101562 C 21.960938 15.65625 21.804688 16.296875 21.835938 16.9375 C 21.867188 16.25 22.101562 15.617188 22.484375 15.101562 Z M 3.3125 18.773438 C 3.109375 18.773438 2.921875 18.867188 2.789062 19.023438 C 2.664062 19.179688 2.617188 19.390625 2.664062 19.585938 C 2.734375 19.28125 3 19.070312 3.3125 19.070312 L 17.203125 19.070312 C 18.984375 19.070312 20.429688 20.46875 20.507812 22.226562 L 20.507812 22.078125 C 20.507812 20.25 19.039062 18.773438 17.203125 18.773438 Z M 14.351562 20.398438 C 14.054688 20.90625 13.898438 21.484375 13.898438 22.078125 L 13.898438 22.226562 C 13.929688 21.539062 14.171875 20.90625 14.554688 20.398438 Z M 14.351562 20.398438 "/>
<path style=" stroke:none;fill-rule:nonzero;fill:rgb(0%,0%,0%);fill-opacity:0.235;" d="M 11.578125 8.054688 L 11.578125 8.21875 C 11.578125 8.820312 11.734375 9.390625 12.015625 9.875 L 12.234375 9.875 C 11.84375 9.34375 11.617188 8.710938 11.578125 8.054688 Z M 21.835938 8.054688 C 21.828125 8.109375 21.828125 8.164062 21.828125 8.21875 C 21.828125 8.820312 21.992188 9.390625 22.273438 9.875 L 22.484375 9.875 C 22.09375 9.351562 21.867188 8.710938 21.835938 8.054688 Z M 18.1875 8.054688 C 18.109375 9.820312 16.648438 11.203125 14.882812 11.195312 L 6.617188 11.195312 C 6.320312 11.195312 6.054688 10.992188 5.976562 10.703125 C 5.929688 10.898438 5.976562 11.109375 6.101562 11.273438 C 6.226562 11.4375 6.414062 11.53125 6.617188 11.53125 L 14.882812 11.53125 C 16.71875 11.53125 18.195312 10.054688 18.195312 8.21875 C 18.195312 8.164062 18.1875 8.109375 18.1875 8.054688 Z M 28.4375 8.054688 C 28.398438 8.984375 27.96875 9.851562 27.25 10.445312 C 26.53125 11.039062 25.601562 11.296875 24.679688 11.164062 C 24.617188 11.1875 24.546875 11.195312 24.476562 11.195312 L 18.242188 11.195312 C 18.125 11.3125 18 11.429688 17.867188 11.53125 L 24.476562 11.53125 C 24.546875 11.53125 24.617188 11.515625 24.679688 11.492188 C 24.828125 11.515625 24.984375 11.53125 25.140625 11.53125 C 26.96875 11.53125 28.445312 10.054688 28.445312 8.21875 C 28.445312 8.164062 28.445312 8.109375 28.4375 8.054688 Z M 10.601562 13.976562 C 10.59375 14.03125 10.585938 14.085938 10.585938 14.140625 C 10.578125 14.507812 10.875 14.804688 11.242188 14.804688 L 22.273438 14.804688 C 22.335938 14.6875 22.40625 14.578125 22.484375 14.476562 L 11.242188 14.476562 C 10.9375 14.476562 10.679688 14.265625 10.601562 13.976562 Z M 28.4375 16.625 C 28.351562 18.382812 26.898438 19.765625 25.140625 19.765625 C 23.375 19.765625 21.921875 18.382812 21.835938 16.625 C 21.828125 16.679688 21.828125 16.734375 21.828125 16.789062 C 21.828125 18.617188 23.304688 20.09375 25.140625 20.09375 C 26.015625 20.09375 26.859375 19.75 27.476562 19.125 C 28.09375 18.507812 28.445312 17.664062 28.445312 16.789062 C 28.445312 16.734375 28.445312 16.679688 28.4375 16.625 Z M 2.671875 19.265625 C 2.617188 19.460938 2.664062 19.671875 2.789062 19.835938 C 2.914062 20 3.109375 20.09375 3.3125 20.09375 L 14.335938 20.09375 C 14.398438 19.984375 14.476562 19.867188 14.554688 19.765625 L 3.3125 19.765625 C 3.007812 19.773438 2.742188 19.5625 2.671875 19.265625 Z M 20.507812 21.914062 C 20.421875 23.679688 18.96875 25.0625 17.203125 25.054688 C 15.4375 25.0625 13.984375 23.679688 13.898438 21.914062 L 13.898438 22.078125 C 13.898438 23.914062 15.367188 25.390625 17.203125 25.390625 C 19.039062 25.390625 20.507812 23.914062 20.507812 22.078125 Z M 20.507812 21.914062 "/>
<path style=" stroke:none;fill-rule:nonzero;fill:rgb(12.941177%,12.941177%,12.941177%);fill-opacity:1;" d="M 14.882812 4.820312 C 13 4.820312 11.484375 6.335938 11.484375 8.21875 C 11.484375 8.921875 11.695312 9.570312 12.054688 10.109375 L 6.617188 10.109375 C 6.226562 10.140625 5.914062 10.46875 5.914062 10.867188 C 5.914062 11.265625 6.226562 11.59375 6.617188 11.625 L 14.882812 11.625 C 16.117188 11.65625 17.273438 11.015625 17.898438 9.945312 C 18.523438 8.882812 18.523438 7.5625 17.898438 6.5 C 17.273438 5.429688 16.117188 4.789062 14.882812 4.820312 Z M 25.140625 4.820312 C 23.882812 4.820312 22.734375 5.507812 22.140625 6.617188 C 21.546875 7.71875 21.609375 9.070312 22.3125 10.109375 L 18.914062 10.109375 C 18.875 10.109375 18.835938 10.132812 18.828125 10.164062 C 18.609375 10.671875 18.257812 11.117188 17.8125 11.453125 C 17.773438 11.476562 17.765625 11.515625 17.773438 11.554688 C 17.789062 11.59375 17.828125 11.625 17.867188 11.625 L 24.476562 11.625 C 24.546875 11.625 24.617188 11.609375 24.6875 11.59375 C 24.835938 11.609375 24.984375 11.625 25.140625 11.625 C 27.023438 11.625 28.539062 10.101562 28.539062 8.21875 C 28.539062 6.335938 27.023438 4.820312 25.140625 4.820312 Z M 14.882812 5.007812 C 16.65625 5.007812 18.09375 6.445312 18.09375 8.226562 C 18.09375 10 16.65625 11.4375 14.882812 11.4375 L 6.617188 11.4375 C 6.46875 11.4375 6.320312 11.382812 6.21875 11.273438 C 6.109375 11.164062 6.046875 11.023438 6.046875 10.867188 C 6.046875 10.546875 6.296875 10.296875 6.617188 10.296875 L 12.234375 10.296875 C 12.273438 10.296875 12.304688 10.28125 12.320312 10.25 C 12.335938 10.210938 12.328125 10.179688 12.3125 10.148438 C 11.898438 9.59375 11.671875 8.914062 11.671875 8.21875 C 11.671875 7.367188 12.007812 6.546875 12.609375 5.945312 C 13.210938 5.34375 14.03125 5.007812 14.882812 5.007812 Z M 25.140625 5.007812 C 25.992188 5.007812 26.8125 5.34375 27.414062 5.945312 C 28.015625 6.546875 28.351562 7.367188 28.351562 8.21875 C 28.351562 9.148438 27.953125 10.039062 27.25 10.648438 C 26.546875 11.257812 25.617188 11.539062 24.695312 11.40625 C 24.679688 11.398438 24.664062 11.398438 24.648438 11.40625 C 24.59375 11.421875 24.53125 11.4375 24.476562 11.4375 L 18.125 11.4375 C 18.484375 11.117188 18.773438 10.734375 18.96875 10.296875 L 22.484375 10.296875 C 22.523438 10.296875 22.554688 10.28125 22.570312 10.25 C 22.585938 10.210938 22.585938 10.179688 22.5625 10.148438 C 22.164062 9.609375 21.921875 8.945312 21.921875 8.21875 C 21.921875 6.4375 23.359375 5.007812 25.140625 5.007812 Z M 11.242188 13.382812 C 10.820312 13.382812 10.484375 13.726562 10.492188 14.140625 C 10.492188 14.5625 10.828125 14.898438 11.242188 14.898438 L 22.3125 14.898438 C 21.609375 15.9375 21.546875 17.28125 22.132812 18.390625 C 22.726562 19.5 23.882812 20.1875 25.140625 20.1875 C 27.023438 20.1875 28.539062 18.671875 28.539062 16.789062 C 28.539062 14.90625 27.023438 13.382812 25.140625 13.382812 Z M 11.242188 13.570312 L 25.140625 13.570312 C 26.921875 13.570312 28.351562 15.007812 28.351562 16.789062 C 28.351562 17.640625 28.015625 18.460938 27.414062 19.0625 C 26.8125 19.664062 25.992188 20 25.140625 20 C 23.359375 20 21.921875 18.570312 21.921875 16.789062 C 21.921875 16.0625 22.164062 15.398438 22.5625 14.859375 C 22.585938 14.828125 22.585938 14.796875 22.570312 14.757812 C 22.554688 14.726562 22.523438 14.710938 22.484375 14.710938 L 11.242188 14.710938 C 11.09375 14.710938 10.945312 14.648438 10.84375 14.546875 C 10.734375 14.4375 10.679688 14.289062 10.679688 14.140625 C 10.679688 13.828125 10.929688 13.570312 11.242188 13.570312 Z M 3.3125 18.679688 C 2.898438 18.679688 2.554688 19.015625 2.554688 19.4375 C 2.554688 19.851562 2.898438 20.1875 3.3125 20.1875 L 14.375 20.1875 C 13.6875 21.234375 13.617188 22.570312 14.210938 23.679688 C 14.804688 24.78125 15.953125 25.476562 17.203125 25.484375 C 19.085938 25.484375 20.601562 23.960938 20.601562 22.078125 C 20.601562 20.195312 19.085938 18.679688 17.203125 18.679688 Z M 3.3125 18.867188 L 17.203125 18.867188 C 18.054688 18.867188 18.875 19.203125 19.476562 19.804688 C 20.078125 20.40625 20.414062 21.226562 20.414062 22.078125 C 20.414062 23.859375 18.984375 25.296875 17.203125 25.296875 C 15.421875 25.296875 13.992188 23.859375 13.992188 22.078125 C 13.992188 21.351562 14.226562 20.6875 14.625 20.148438 C 14.648438 20.125 14.65625 20.085938 14.640625 20.054688 C 14.625 20.023438 14.59375 20 14.554688 20 L 3.3125 20 C 3.164062 20 3.015625 19.945312 2.90625 19.835938 C 2.804688 19.734375 2.742188 19.585938 2.742188 19.4375 C 2.742188 19.117188 2.992188 18.867188 3.3125 18.867188 Z M 3.3125 18.867188 "/>
</g>
</svg>

<svg xmlns="http://www.w3.org/2000/svg" width="32pt" height="32pt" viewBox="0 0 32 32"><defs><radialGradient id="a" gradientUnits="userSpaceOnUse" cx="450.909" cy="189.579" fx="450.909" fy="189.579" r="21.167" gradientTransform="matrix(0 -.07813 -.14064 0 43.53 60.916)"><stop offset="0" stop-opacity=".314"/><stop offset=".222" stop-opacity=".275"/><stop offset="1" stop-opacity="0"/></radialGradient><radialGradient id="b" gradientUnits="userSpaceOnUse" cx="450.909" cy="189.579" fx="450.909" fy="189.579" r="21.167" gradientTransform="matrix(0 .07813 .14064 0 -9.132 -10.207)"><stop offset="0" stop-opacity=".314"/><stop offset=".222" stop-opacity=".275"/><stop offset="1" stop-opacity="0"/></radialGradient><radialGradient id="c" gradientUnits="userSpaceOnUse" cx="450.909" cy="189.579" fx="450.909" fy="189.579" r="21.167" gradientTransform="matrix(0 -.07813 .14064 0 -9.132 60.916)"><stop offset="0" stop-opacity=".314"/><stop offset=".222" stop-opacity=".275"/><stop offset="1" stop-opacity="0"/></radialGradient><radialGradient id="d" gradientUnits="userSpaceOnUse" cx="450.909" cy="189.579" fx="450.909" fy="189.579" r="21.167" gradientTransform="matrix(0 .07813 -.14064 0 43.53 -10.207)"><stop offset="0" stop-opacity=".314"/><stop offset=".222" stop-opacity=".275"/><stop offset="1" stop-opacity="0"/></radialGradient><linearGradient id="e" gradientUnits="userSpaceOnUse" x1="1040" y1="1535.118" x2="1040" y2="295.118" gradientTransform="rotate(.891) scale(.01654)"><stop offset="0" stop-color="#b0bec5"/><stop offset="1" stop-color="#cfd8dc"/></linearGradient></defs><path d="M17.2 25.355h2.644v-1.324h-2.645zm0 0" fill="url(#a)"/><path d="M17.2 25.355h-2.645v1.325h2.644zm0 0" fill="url(#b)"/><path d="M17.2 25.355h-2.645v-1.324h2.644zm0 0" fill="url(#c)"/><path d="M17.2 25.355h2.644v1.325h-2.645zm0 0" fill="url(#d)"/><path d="M14.883 4.914a3.296 3.296 0 0 0-3.305 3.305c0 .746.242 1.433.656 1.984h-5.62a.663.663 0 0 0 0 1.324h8.269A3.303 3.303 0 0 0 18.19 8.22a3.3 3.3 0 0 0-3.308-3.305zm10.254 0a3.296 3.296 0 0 0-3.305 3.305c0 .746.242 1.433.656 1.984H18.91a3.31 3.31 0 0 1-1.043 1.324h6.61c.07 0 .136-.011.203-.03.148.019.3.03.457.03a3.303 3.303 0 0 0 3.308-3.308 3.3 3.3 0 0 0-3.308-3.305zm-13.89 8.566a.66.66 0 0 0-.661.66.66.66 0 0 0 .66.665h11.242a3.288 3.288 0 0 0-.656 1.984 3.296 3.296 0 0 0 3.305 3.305 3.3 3.3 0 0 0 3.308-3.305 3.303 3.303 0 0 0-3.308-3.309zm-7.934 5.293a.66.66 0 1 0 0 1.32h11.242a3.312 3.312 0 0 0-.66 1.989 3.3 3.3 0 0 0 3.308 3.305 3.3 3.3 0 0 0 3.309-3.305 3.3 3.3 0 0 0-3.309-3.309zm0 0" fill="url(#e)"/><path d="M14.883 4.914a3.296 3.296 0 0 0-3.301 3.457 3.297 3.297 0 0 1 3.3-3.16 3.298 3.298 0 0 1 3.306 3.16c.003-.05.003-.101.003-.152a3.3 3.3 0 0 0-3.308-3.305zm10.254 0a3.296 3.296 0 0 0-3.305 3.305v.152a3.304 3.304 0 0 1 3.305-3.16 3.298 3.298 0 0 1 3.304 3.16c.004-.05.004-.101.004-.152a3.3 3.3 0 0 0-3.308-3.305zm-18.524 5.29a.663.663 0 0 0-.64.812.658.658 0 0 1 .64-.512h5.621a4.009 4.009 0 0 1-.199-.3zm12.297 0a3.31 3.31 0 0 1-1.043 1.323h.344a3.31 3.31 0 0 0 .7-1.023h3.577a4.009 4.009 0 0 1-.199-.3zm-7.664 3.276a.66.66 0 0 0-.644.813.655.655 0 0 1 .644-.512h13.89a3.298 3.298 0 0 1 3.305 3.156c.004-.05.004-.097.004-.148a3.303 3.303 0 0 0-3.308-3.309zm11.043 1.622a3.298 3.298 0 0 0-.457 1.687v.148a3.3 3.3 0 0 1 .656-1.835zM3.312 18.773a.66.66 0 0 0-.664.66c0 .051.008.102.02.149a.659.659 0 0 1 .644-.512h13.891a3.304 3.304 0 0 1 3.305 3.16c0-.05.004-.101.004-.148a3.3 3.3 0 0 0-3.309-3.309zm11.043 1.622a3.29 3.29 0 0 0-.46 1.687c0 .047.003.098.003.148a3.3 3.3 0 0 1 .657-1.835zm0 0" fill="#fefefe" fill-opacity=".392"/><path d="M11.582 8.055c-.004.054-.004.11-.004.164 0 .605.16 1.168.438 1.656h.218a3.287 3.287 0 0 1-.652-1.82zm10.254 0c-.004.054-.004.11-.004.164 0 .605.156 1.168.438 1.656h.218a3.287 3.287 0 0 1-.652-1.82zm-3.648 0a3.3 3.3 0 0 1-3.305 3.14h-8.27a.658.658 0 0 1-.64-.496.662.662 0 0 0 .64.828h8.27A3.303 3.303 0 0 0 18.19 8.22c0-.055 0-.11-.003-.164zm10.253 0a3.3 3.3 0 0 1-3.761 3.11.711.711 0 0 1-.203.03h-6.235c-.117.121-.242.23-.375.332h6.61c.07 0 .136-.011.203-.03.148.019.3.03.457.03a3.303 3.303 0 0 0 3.308-3.308c0-.055 0-.11-.004-.164zm-17.836 5.922a.66.66 0 0 0 .64.828h11.025a3.25 3.25 0 0 1 .218-.332H11.246a.662.662 0 0 1-.64-.496zm17.836 2.644a3.3 3.3 0 0 1-3.304 3.145 3.297 3.297 0 0 1-3.301-3.141c-.004.055-.004.11-.004.164a3.296 3.296 0 0 0 3.305 3.305 3.3 3.3 0 0 0 3.308-3.305c0-.055 0-.113-.004-.168zM2.671 19.27a.574.574 0 0 0-.023.164c0 .367.297.66.664.66h11.024c.066-.114.137-.223.219-.328H3.313a.659.659 0 0 1-.641-.496zm17.837 2.644a3.304 3.304 0 0 1-3.305 3.145 3.3 3.3 0 0 1-3.305-3.145c0 .055-.003.11-.003.168a3.3 3.3 0 0 0 3.308 3.305 3.3 3.3 0 0 0 3.309-3.305c0-.059-.004-.113-.004-.168zm0 0" fill-opacity=".235"/><path d="M14.883 4.82a3.39 3.39 0 0 0-3.399 3.399c0 .703.211 1.351.57 1.89h-5.44a.757.757 0 0 0 0 1.512h8.269a3.398 3.398 0 0 0 3.402-3.402 3.394 3.394 0 0 0-3.402-3.399zm10.254 0a3.39 3.39 0 0 0-3.399 3.399c0 .703.211 1.351.57 1.89H18.91a.097.097 0 0 0-.086.059 3.213 3.213 0 0 1-1.015 1.285.097.097 0 0 0-.032.106.094.094 0 0 0 .09.062h6.61c.07 0 .14-.012.207-.031a3.398 3.398 0 0 0 3.855-3.371 3.394 3.394 0 0 0-3.402-3.399zm-10.254.188a3.202 3.202 0 0 1 3.215 3.21 3.205 3.205 0 0 1-3.215 3.216h-8.27a.568.568 0 1 1 0-1.137h5.621c.036 0 .067-.02.082-.05a.082.082 0 0 0-.007-.099 3.195 3.195 0 0 1-.637-1.93 3.2 3.2 0 0 1 3.21-3.21zm10.254 0a3.204 3.204 0 0 1 3.215 3.21 3.208 3.208 0 0 1-3.66 3.184c-.012 0-.028 0-.04.004a.534.534 0 0 1-.175.028h-6.348c.351-.313.64-.7.84-1.137h3.52c.034 0 .066-.02.081-.05.016-.032.016-.071-.008-.099a3.195 3.195 0 0 1-.636-1.93 3.2 3.2 0 0 1 3.21-3.21zm-13.89 8.379a.755.755 0 1 0 0 1.512h11.062c-.36.539-.57 1.187-.57 1.89a3.39 3.39 0 0 0 3.398 3.398 3.394 3.394 0 0 0 3.402-3.398 3.398 3.398 0 0 0-3.402-3.402zm0 .187h13.89a3.208 3.208 0 0 1 3.215 3.215A3.204 3.204 0 0 1 25.137 20a3.2 3.2 0 0 1-3.211-3.21c0-.727.234-1.395.637-1.93.023-.028.023-.067.007-.098a.091.091 0 0 0-.082-.051H11.246a.565.565 0 0 1-.566-.57c0-.317.25-.567.566-.567zM3.312 18.68a.755.755 0 0 0-.758.754c0 .418.34.753.757.753h11.063a3.418 3.418 0 0 0-.574 1.895 3.394 3.394 0 0 0 3.402 3.398 3.394 3.394 0 0 0 3.402-3.398 3.398 3.398 0 0 0-3.402-3.402zm0 .187h13.89a3.205 3.205 0 0 1 3.215 3.215 3.204 3.204 0 0 1-3.215 3.211 3.204 3.204 0 0 1-3.215-3.211c0-.727.239-1.395.64-1.93a.097.097 0 0 0 .009-.097.095.095 0 0 0-.082-.055H3.313a.565.565 0 1 1 0-1.133zm0 0" fill="#212121"/></svg>
